X:89
T:Ships Are Sailing
M:4/4
L:1/8
R:reel
K:Edor
|: Beed BcdB | AD (3FED AD (3FED | EDEF GFGA | Beef gfed |
Beed BcdB | AD (3FED AD (3FED | EDEF GFGA |1 Beed e3 z :|2 Beed e2ef ||
|: g3a bgeg | f3g afdf | g3a bgeg | fedf e2ef |
g3a bgeg | f3g afdf | g2bg f2af |1 edef gfef :|2 edef gfed ||
